X:91
T:Wedding Day. THO5.091, The
M:2/4
L:1/8
B:Thompson's Complete Collection of 200 Favourite Dances Vol.5
F:https://www.libraryofdance.org/manuals/1780c-Thompson-Compleat-5.pdf
Z:vmp. Peter Dunk 2024
Q:1/4=100
K:G
B/c/|dd/B/ ee/c/|a/g/f/e/ e/d/c/B/|c/e/c/A/ B/d/B/G/|A/c/E/F/ G/F/E/D/|
dd/B/ ee/c/|a/g/f/e/ e/d/c/B/|c/e/c/A/ B/d/B/G/|A/c/A/F/ G:|
|:F/G/|AA/F/ D/F/A/c/|BB/G/ D/G/B/d/|e/g/f/g/ e/d/c/B/|c/A/B/G/ G/F/E/D/|
dd/B/ ee/c/|a/g/f/e/ e/d/c/B/|c/e/c/A/ B/d/B/G/|A/g/f/a/ g:|
W:
W:The First Gent sets to the third Lady and turn ./.
W:The first Lady do the same with the 3rd Gent ./:
W:Hands six round :/.
W:lead through the top and cast off :/:

